src/assets/icons/svg/weixin-icon.svg

<svg t="1571040196571" class="icon" viewBox="0 0 1024 1024" version="1.1" xmlns="http://www.w3.org/2000/svg" p-id="2487" width="64" height="64"><path d="M684.327322 267.607874c10.295484 0 20.419052 0.780783 30.601972 1.898233C687.515944 141.847635 551.073412 47.02399 395.27095 47.02399c-174.151365 0-316.802296 118.652354-316.802296 269.418103 0 86.992283 47.438429 158.431336 126.767172 213.925231l-31.665187 95.272877 110.765733-55.494918c39.60809 7.776104 71.383794 15.833617 110.935602 15.833617 9.956769 0 19.804045-0.447185 29.538757-1.172709-6.154163-21.204951-9.788947-43.35953-9.788947-66.462714C415.074995 379.937219 533.898241 267.607874 684.327322 267.607874L684.327322 267.607874zM514.039961 181.733041c23.943318 0 39.663348 15.72003 39.663348 39.552831 0 23.717168-15.717983 39.60809-39.663348 39.60809-23.667026 0-47.495734-15.889899-47.495734-39.60809C466.544227 197.397812 490.317677 181.733041 514.039961 181.733041L514.039961 181.733041zM292.337603 260.892939c-23.77652 0-47.721885-15.889899-47.721885-39.60809 0-23.832801 23.944342-39.552831 47.721885-39.552831 23.772426 0 39.552831 15.664771 39.552831 39.552831C331.891458 245.00304 316.111053 260.892939 292.337603 260.892939L292.337603 260.892939zM973.550493 514.537799c0-126.655631-126.766149-229.870388-269.14181-229.870388-150.761656 0-269.419126 103.271038-269.419126 229.870388 0 126.991276 118.712729 229.866295 269.419126 229.866295 31.55467 0 63.383586-7.887644 95.05082-15.8285l86.87665 47.659463-23.832801-79.209016C926.110017 649.244804 973.550493 585.975828 973.550493 514.537799L973.550493 514.537799zM617.027543 474.873428c-15.717983 0-31.66314-15.663748-31.66314-31.665187 0-15.775288 15.945157-31.659047 31.66314-31.659047 24.056905 0 39.665395 15.884782 39.665395 31.659047C656.691915 459.20968 641.083425 474.873428 617.027543 474.873428L617.027543 474.873428zM791.289426 474.873428c-15.608489 0-31.492248-15.663748-31.492248-31.665187 0-15.775288 15.830547-31.659047 31.492248-31.659047 23.832801 0 39.664372 15.884782 39.664372 31.659047C830.952774 459.20968 815.122227 474.873428 791.289426 474.873428L791.289426 474.873428z" p-id="2488"></path></svg>

<svg class="icon" viewBox="0 0 1024 1024" xmlns="http://www.w3.org/2000/svg" width="64" height="64"><path d="M684.327 267.608c10.296 0 20.42.78 30.602 1.898C687.516 141.848 551.073 47.024 395.271 47.024c-174.151 0-316.802 118.652-316.802 269.418 0 86.992 47.438 158.431 126.767 213.925L173.57 625.64l110.765-55.495c39.608 7.776 71.384 15.834 110.936 15.834 9.957 0 19.804-.447 29.539-1.173-6.154-21.205-9.79-43.36-9.79-66.463.054-138.406 118.877-250.735 269.306-250.735zM514.04 181.733c23.943 0 39.663 15.72 39.663 39.553 0 23.717-15.718 39.608-39.663 39.608-23.667 0-47.496-15.89-47.496-39.608 0-23.888 23.774-39.553 47.496-39.553zm-221.702 79.16c-23.777 0-47.722-15.89-47.722-39.608 0-23.833 23.944-39.553 47.722-39.553 23.772 0 39.552 15.665 39.552 39.553.001 23.718-15.779 39.608-39.552 39.608zM973.55 514.538c0-126.656-126.766-229.87-269.141-229.87-150.762 0-269.42 103.27-269.42 229.87 0 126.991 118.713 229.866 269.42 229.866 31.554 0 63.383-7.888 95.05-15.828l86.877 47.66-23.833-79.21c63.607-47.781 111.047-111.05 111.047-182.488zm-356.522-39.665c-15.718 0-31.664-15.663-31.664-31.665 0-15.775 15.946-31.659 31.664-31.659 24.056 0 39.665 15.885 39.665 31.66-.001 16-15.61 31.664-39.665 31.664zm174.261 0c-15.608 0-31.492-15.663-31.492-31.665 0-15.775 15.83-31.659 31.492-31.659 23.833 0 39.665 15.885 39.665 31.66-.001 16-15.832 31.664-39.665 31.664z"/></svg>
